X: 11570
T: Editor's Favourite
R: strathspey
M: 4/4
K: Amajor
TA2 ((3efg) a<e Tf2|(e<c) e>f Te>c B<e|TA2 ((3efg) a<e Tf2|1 (e<c) B>e c<A A<B:|2 (e<c) B>e c<A A<d||
Tc2 (e<c) A>c e<c|d2 (f<d) ((3fga f)<d|c>(cd/ e)>c A>(c e)>=g|f<d e>c (3B/B/B/B B<d|
Tc2 (e<c) A>c e<c|d2 (f<d) ((3fga f)<d|c>d (e>c) (A>c e)>(a|f)<d e>c B/B/B B<d||

